svg/icon/tnc.svg

<svg xmlns="http://www.w3.org/2000/svg" xmlns:xlink="http://www.w3.org/1999/xlink" width="32" height="32" viewBox="0 0 32 32">
  <defs>
    <linearGradient id="tnc-c" x1="50%" x2="50%" y1="0%" y2="100%">
      <stop offset="0%" stop-color="#FFF" stop-opacity=".5"/>
      <stop offset="100%" stop-opacity=".5"/>
    </linearGradient>
    <circle id="tnc-b" cx="16" cy="15" r="15"/>
    <filter id="tnc-a" width="111.7%" height="111.7%" x="-5.8%" y="-4.2%" filterUnits="objectBoundingBox">
      <feOffset dy=".5" in="SourceAlpha" result="shadowOffsetOuter1"/>
      <feGaussianBlur in="shadowOffsetOuter1" result="shadowBlurOuter1" stdDeviation=".5"/>
      <feComposite in="shadowBlurOuter1" in2="SourceAlpha" operator="out" result="shadowBlurOuter1"/>
      <feColorMatrix in="shadowBlurOuter1" values="0 0 0 0 0   0 0 0 0 0   0 0 0 0 0  0 0 0 0.199473505 0"/>
    </filter>
    <path id="tnc-e" d="M18.2256642,12.8042443 L23.8586279,22.5 L8.24532225,22.5 L10.1164241,19.3967776 L18.5282514,19.3993324 L16.3961423,15.9184159 L18.2256642,12.8042443 Z M12.4755255,15.0603052 L18.2031762,5.5408629 L26,18.6657231 L22.256484,18.6657231 L18.1359818,11.5052325 L16.1345692,15.0603052 L12.4755255,15.0603052 Z M17.3606144,18.6785849 L6,18.6248602 L13.8066528,5.5 L15.6673597,8.64644368 L11.3638254,15.5644133 L15.5310926,15.5644133 L17.3606144,18.6785849 Z"/>
    <filter id="tnc-d" width="117.5%" height="120.6%" x="-8.8%" y="-7.4%" filterUnits="objectBoundingBox">
      <feOffset dy=".5" in="SourceAlpha" result="shadowOffsetOuter1"/>
      <feGaussianBlur in="shadowOffsetOuter1" result="shadowBlurOuter1" stdDeviation=".5"/>
      <feColorMatrix in="shadowBlurOuter1" values="0 0 0 0 0   0 0 0 0 0   0 0 0 0 0  0 0 0 0.204257246 0"/>
    </filter>
  </defs>
  <g fill="none" fill-rule="evenodd">
    <g fill-rule="nonzero">
      <use fill="#000" filter="url(#tnc-a)" xlink:href="#tnc-b"/>
      <use fill="#FF439B" fill-rule="evenodd" xlink:href="#tnc-b"/>
      <use fill="url(#tnc-c)" fill-rule="evenodd" style="mix-blend-mode:soft-light" xlink:href="#tnc-b"/>
      <circle cx="16" cy="15" r="14.5" stroke="#000" stroke-opacity=".097"/>
    </g>
    <use fill="#000" filter="url(#tnc-d)" xlink:href="#tnc-e"/>
    <use fill="#FFF" xlink:href="#tnc-e"/>
  </g>
</svg>

<svg height="32" width="32" xmlns="http://www.w3.org/2000/svg" xmlns:xlink="http://www.w3.org/1999/xlink"><defs><linearGradient id="c" x1="50%" x2="50%" y1="0%" y2="100%"><stop offset="0" stop-color="#fff" stop-opacity=".5"/><stop offset="1" stop-opacity=".5"/></linearGradient><circle id="b" cx="16" cy="15" r="15"/><filter id="a" height="111.7%" width="111.7%" x="-5.8%" y="-4.2%"><feOffset dy=".5" in="SourceAlpha" result="shadowOffsetOuter1"/><feGaussianBlur in="shadowOffsetOuter1" result="shadowBlurOuter1" stdDeviation=".5"/><feComposite in="shadowBlurOuter1" in2="SourceAlpha" operator="out" result="shadowBlurOuter1"/><feColorMatrix in="shadowBlurOuter1" values="0 0 0 0 0 0 0 0 0 0 0 0 0 0 0 0 0 0 0.199473505 0"/></filter><path id="e" d="M18.226 12.804l5.633 9.696H8.245l1.871-3.103 8.412.002-2.132-3.48zm-5.75 2.256l5.727-9.52L26 18.667h-3.744l-4.12-7.16-2.001 3.554zm4.885 3.619L6 18.625 13.807 5.5l1.86 3.146-4.303 6.918h4.167z"/><filter id="d" height="120.6%" width="117.5%" x="-8.8%" y="-7.4%"><feOffset dy=".5" in="SourceAlpha" result="shadowOffsetOuter1"/><feGaussianBlur in="shadowOffsetOuter1" result="shadowBlurOuter1" stdDeviation=".5"/><feColorMatrix in="shadowBlurOuter1" values="0 0 0 0 0 0 0 0 0 0 0 0 0 0 0 0 0 0 0.204257246 0"/></filter></defs><g fill="none" fill-rule="evenodd"><g fill-rule="nonzero"><use fill="#000" filter="url(#a)" xlink:href="#b"/><use fill="#ff439b" fill-rule="evenodd" xlink:href="#b"/><use fill="url(#c)" fill-rule="evenodd" xlink:href="#b"/><circle cx="16" cy="15" r="14.5" stroke="#000" stroke-opacity=".097"/></g><use fill="#000" filter="url(#d)" xlink:href="#e"/><use fill="#fff" xlink:href="#e"/></g></svg>
